shader_type canvas_item;
uniform sampler2D SCREEN_TEXTURE: hint_screen_texture, filter_linear_mipmap;

uniform float LevelOfDistortion: hint_range(0.0, 5.0, 0.1) = 0.0;

void fragment() {
	// Called for every pixel the material is visible on.
	vec4 color = texture(SCREEN_TEXTURE, SCREEN_UV, LevelOfDistortion);
	COLOR = color;
}
